public/avatar/hat/13.svg

<svg xmlns:xlink="http://www.w3.org/1999/xlink" height="92.9" width="100.7" xmlns="http://www.w3.org/2000/svg"><g transform="translate(38.65 49.75)"><use height="36.8" transform="rotate(14.999 112.804 22.137)" width="9.35" xlink:href="#a"/><use height="36.8" transform="scale(-1 1) rotate(14.999 113.244 24.011)" width="9.35" xlink:href="#a"/></g><defs><use height="36.8" width="9.35" xlink:href="#b" id="a"/><g id="b"><path d="m4.1-8.85-2.6-2.7h-.25l-2.1 15.3-1.85 2.5L.85-17.9l3.3 6.75-.05 2.3" fill="#c30" fill-rule="evenodd" transform="translate(4.7 18.4)"/><path d="m-2.7 6.25 1.85-2.5 2.1-15.3h.25l2.6 2.7-.25 13.9-4.55 3.4v5.4q-1.15 3.95-3.5 4.05l1.5-11.65" fill="#fff" fill-rule="evenodd" transform="translate(4.7 18.4)"/><path d="m4.1-8.85.05-2.3-3.3-6.75L-2.7 6.25-4.2 17.9m3.5-4.05v-5.4l4.55-3.4.25-13.9Z" fill="none" stroke="#333" stroke-linecap="round" stroke-linejoin="round" transform="translate(4.7 18.4)"/></g></defs></svg>

<?xml version="1.0" encoding="UTF-8" standalone="no"?>
<svg xmlns:xlink="http://www.w3.org/1999/xlink" height="92.9px" width="100.7px" xmlns="http://www.w3.org/2000/svg">
  <g transform="matrix(1.0, 0.0, 0.0, 1.0, 38.65, 49.75)">
    <use height="36.8" transform="matrix(0.9659, 0.2588, -0.2588, 0.9659, 9.5724, -28.4395)" width="9.35" xlink:href="#sprite0"/>
    <use height="36.8" transform="matrix(-0.9659, 0.2588, 0.2588, 0.9659, -10.0724, -28.4895)" width="9.35" xlink:href="#sprite0"/>
  </g>
  <defs>
    <g id="sprite0" transform="matrix(1.0, 0.0, 0.0, 1.0, 4.7, 18.4)">
      <use height="36.8" transform="matrix(1.0, 0.0, 0.0, 1.0, -4.7, -18.4)" width="9.35" xlink:href="#shape0"/>
    </g>
    <g id="shape0" transform="matrix(1.0, 0.0, 0.0, 1.0, 4.7, 18.4)">
      <path d="M4.1 -8.85 L1.5 -11.55 1.25 -11.55 -0.85 3.75 -2.7 6.25 0.85 -17.9 4.15 -11.15 4.1 -8.85" fill="#cc3300" fill-rule="evenodd" stroke="none"/>
      <path d="M-2.7 6.25 L-0.85 3.75 1.25 -11.55 1.5 -11.55 4.1 -8.85 3.85 5.05 -0.7 8.45 -0.7 13.85 Q-1.85 17.8 -4.2 17.9 L-2.7 6.25" fill="#ffffff" fill-rule="evenodd" stroke="none"/>
      <path d="M4.1 -8.85 L4.15 -11.15 0.85 -17.9 -2.7 6.25 -4.2 17.9 M-0.7 13.85 L-0.7 8.45 3.85 5.05 4.1 -8.85 Z" fill="none" stroke="#333333" stroke-linecap="round" stroke-linejoin="round" stroke-width="1.0"/>
    </g>
  </defs>
</svg>
